Newaita-dark/actions/32/format-font-size-more.svg

<svg height="32" viewBox="0 0 32 32" width="32" xmlns="http://www.w3.org/2000/svg"><g fill="#e0e0e0"><path d="m5.292969 2.894531c-1.464844 0-2.648438 1.183594-2.648438 2.648438v5.292969h2.648438v-3.972657c0-.730469.589843-1.320312 1.320312-1.320312h3.972657v-2.648438zm21.167969 18.523438v3.96875c0 .734375-.589844 1.324219-1.324219 1.324219h-3.96875v2.644531h5.292969c1.464843 0 2.644531-1.179688 2.644531-2.644531v-5.292969zm0 0"/><path d="m29.105469 2.894531-7.949219 1.40625 1.5625 1.5625-7.390625 9.851563c-.476563.632812.324219 1.4375.960937.960937l9.851563-7.390625 1.5625 1.5625zm0 0"/><path d="m7.9375 16.125c-1.765625 0-3.324219.644531-4.28125 1.632812l2.492188 1.363282c.46875-.21875 1.097656-.347656 1.789062-.347656 1.464844 0 2.648438.589843 2.648438 1.320312v1.851562c-.777344-.335937-1.683594-.527343-2.648438-.527343-2.929688 0-5.292969 1.769531-5.292969 3.96875v.664062h.074219c.417969 1.878907 2.589844 3.304688 5.21875 3.304688.964844 0 1.871094-.191407 2.648438-.527344v.527344h2.644531v-9.261719c0-2.195312-2.359375-3.96875-5.292969-3.96875zm0 7.941406c1.464844 0 2.648438.589844 2.648438 1.320313 0 .734375-1.183594 1.324219-2.648438 1.324219s-2.644531-.589844-2.644531-1.324219c0-.730469 1.179687-1.320313 2.644531-1.320313zm0 0"/></g></svg>

<svg xmlns="http://www.w3.org/2000/svg" xmlns:xlink="http://www.w3.org/1999/xlink" width="32px" height="32px" viewBox="0 0 32 32" version="1.1">
<g id="surface1">
     <defs>
  <style id="current-color-scheme" type="text/css">
   .ColorScheme-Text { color:#eeeeee; } .ColorScheme-Highlight { color:#424242; }
  </style>
 </defs>
<path style="fill:currentColor" class="ColorScheme-Text" d="M 5.292969 2.894531 C 3.828125 2.894531 2.644531 4.078125 2.644531 5.542969 L 2.644531 10.835938 L 5.292969 10.835938 L 5.292969 6.863281 C 5.292969 6.132812 5.882812 5.542969 6.613281 5.542969 L 10.585938 5.542969 L 10.585938 2.894531 Z M 26.460938 21.417969 L 26.460938 25.386719 C 26.460938 26.121094 25.871094 26.710938 25.136719 26.710938 L 21.167969 26.710938 L 21.167969 29.355469 L 26.460938 29.355469 C 27.925781 29.355469 29.105469 28.175781 29.105469 26.710938 L 29.105469 21.417969 Z M 26.460938 21.417969 "/>
     <defs>
  <style id="current-color-scheme" type="text/css">
   .ColorScheme-Text { color:#eeeeee; } .ColorScheme-Highlight { color:#424242; }
  </style>
 </defs>
<path style="fill:currentColor" class="ColorScheme-Text" d="M 29.105469 2.894531 L 21.15625 4.300781 L 22.71875 5.863281 L 15.328125 15.714844 C 14.851562 16.347656 15.652344 17.152344 16.289062 16.675781 L 26.140625 9.285156 L 27.703125 10.847656 Z M 29.105469 2.894531 "/>
     <defs>
  <style id="current-color-scheme" type="text/css">
   .ColorScheme-Text { color:#eeeeee; } .ColorScheme-Highlight { color:#424242; }
  </style>
 </defs>
<path style="fill:currentColor" class="ColorScheme-Text" d="M 7.9375 16.125 C 6.171875 16.125 4.613281 16.769531 3.65625 17.757812 L 6.148438 19.121094 C 6.617188 18.902344 7.246094 18.773438 7.9375 18.773438 C 9.402344 18.773438 10.585938 19.363281 10.585938 20.09375 L 10.585938 21.945312 C 9.808594 21.609375 8.902344 21.417969 7.9375 21.417969 C 5.007812 21.417969 2.644531 23.1875 2.644531 25.386719 L 2.644531 26.050781 L 2.71875 26.050781 C 3.136719 27.929688 5.308594 29.355469 7.9375 29.355469 C 8.902344 29.355469 9.808594 29.164062 10.585938 28.828125 L 10.585938 29.355469 L 13.230469 29.355469 L 13.230469 20.09375 C 13.230469 17.898438 10.871094 16.125 7.9375 16.125 Z M 7.9375 24.066406 C 9.402344 24.066406 10.585938 24.65625 10.585938 25.386719 C 10.585938 26.121094 9.402344 26.710938 7.9375 26.710938 C 6.472656 26.710938 5.292969 26.121094 5.292969 25.386719 C 5.292969 24.65625 6.472656 24.066406 7.9375 24.066406 Z M 7.9375 24.066406 "/>
</g>
</svg>
